TileServer und Tiles/svg/9/94_22.svg

<?xml version='1.0' encoding='UTF-8' standalone='no'?>
<svg xmlns="http://www.w3.org/2000/svg" width="497pt" viewBox="0 0 497 279" xmlns:xlink="http://www.w3.org/1999/xlink" height="279pt">
 <defs style="stroke:none;" overflow="visible">
  <path id="glyph0-7" d="M 2.421875 0.09375 C 1.796875 0.09375 1.316406 -0.0820312 0.984375 -0.4375 C 0.648438 -0.800781 0.484375 -1.296875 0.484375 -1.921875 C 0.484375 -2.347656 0.539062 -2.769531 0.65625 -3.1875 C 0.78125 -3.601562 0.957031 -3.984375 1.1875 -4.328125 C 1.425781 -4.671875 1.710938 -4.941406 2.046875 -5.140625 C 2.378906 -5.347656 2.75 -5.453125 3.15625 -5.453125 C 3.664062 -5.453125 4.046875 -5.34375 4.296875 -5.125 C 4.554688 -4.90625 4.6875 -4.597656 4.6875 -4.203125 C 4.6875 -3.859375 4.578125 -3.539062 4.359375 -3.25 C 4.148438 -2.96875 3.8125 -2.738281 3.34375 -2.5625 C 2.882812 -2.394531 2.289062 -2.3125 1.5625 -2.3125 L 1.390625 -2.3125 C 1.378906 -2.257812 1.375 -2.195312 1.375 -2.125 C 1.375 -2.0625 1.375 -2.003906 1.375 -1.953125 C 1.375 -1.546875 1.472656 -1.222656 1.671875 -0.984375 C 1.867188 -0.742188 2.171875 -0.625 2.578125 -0.625 C 2.828125 -0.625 3.066406 -0.660156 3.296875 -0.734375 C 3.523438 -0.804688 3.773438 -0.910156 4.046875 -1.046875 L 4.046875 -0.296875 C 3.785156 -0.179688 3.535156 -0.0859375 3.296875 -0.015625 C 3.054688 0.0546875 2.765625 0.09375 2.421875 0.09375 Z M 1.515625 -3.03125 L 1.59375 -3.03125 C 1.988281 -3.03125 2.351562 -3.0625 2.6875 -3.125 C 3.03125 -3.195312 3.304688 -3.316406 3.515625 -3.484375 C 3.722656 -3.648438 3.828125 -3.867188 3.828125 -4.140625 C 3.828125 -4.316406 3.769531 -4.457031 3.65625 -4.5625 C 3.539062 -4.675781 3.359375 -4.734375 3.109375 -4.734375 C 2.785156 -4.734375 2.472656 -4.582031 2.171875 -4.28125 C 1.878906 -3.988281 1.660156 -3.570312 1.515625 -3.03125 Z M 1.515625 -3.03125 "/>
  <path id="glyph0-6" d="M 0.40625 0 L 1.921875 -7.140625 L 2.8125 -7.140625 L 1.453125 -0.796875 L 4.203125 -0.796875 L 4.03125 0 Z M 0.40625 0 "/>
  <path id="glyph0-5" d="M 0.265625 0 L 1.875 -7.59375 L 2.765625 -7.59375 L 2.125 -4.578125 C 2.007812 -4.046875 1.910156 -3.632812 1.828125 -3.34375 C 1.742188 -3.050781 1.6875 -2.859375 1.65625 -2.765625 L 1.671875 -2.765625 L 4.203125 -5.359375 L 5.25 -5.359375 L 2.953125 -3.0625 L 4.375 0 L 3.40625 0 L 2.28125 -2.515625 L 1.5625 -1.9375 L 1.15625 0 Z M 0.265625 0 "/>
  <path id="glyph0-4" d="M 2.46875 0.09375 C 1.875 0.09375 1.394531 -0.0703125 1.03125 -0.40625 C 0.664062 -0.738281 0.484375 -1.238281 0.484375 -1.90625 C 0.484375 -2.382812 0.546875 -2.835938 0.671875 -3.265625 C 0.804688 -3.691406 0.992188 -4.066406 1.234375 -4.390625 C 1.472656 -4.722656 1.765625 -4.984375 2.109375 -5.171875 C 2.460938 -5.359375 2.851562 -5.453125 3.28125 -5.453125 C 3.507812 -5.453125 3.738281 -5.425781 3.96875 -5.375 C 4.207031 -5.332031 4.421875 -5.273438 4.609375 -5.203125 L 4.359375 -4.46875 C 4.222656 -4.53125 4.0625 -4.585938 3.875 -4.640625 C 3.695312 -4.691406 3.503906 -4.71875 3.296875 -4.71875 C 2.910156 -4.71875 2.570312 -4.585938 2.28125 -4.328125 C 2 -4.078125 1.773438 -3.738281 1.609375 -3.3125 C 1.453125 -2.882812 1.375 -2.414062 1.375 -1.90625 C 1.375 -1.5 1.476562 -1.179688 1.6875 -0.953125 C 1.90625 -0.734375 2.195312 -0.625 2.5625 -0.625 C 2.789062 -0.625 3.007812 -0.65625 3.21875 -0.71875 C 3.4375 -0.789062 3.644531 -0.867188 3.84375 -0.953125 L 3.84375 -0.21875 C 3.65625 -0.125 3.445312 -0.0507812 3.21875 0 C 2.988281 0.0625 2.738281 0.09375 2.46875 0.09375 Z M 2.46875 0.09375 "/>
  <path id="glyph0-3" d="M 1.9375 0.09375 C 1.507812 0.09375 1.160156 -0.0546875 0.890625 -0.359375 C 0.617188 -0.671875 0.484375 -1.128906 0.484375 -1.734375 C 0.484375 -2.234375 0.546875 -2.707031 0.671875 -3.15625 C 0.804688 -3.601562 0.988281 -4 1.21875 -4.34375 C 1.445312 -4.6875 1.722656 -4.957031 2.046875 -5.15625 C 2.367188 -5.351562 2.722656 -5.453125 3.109375 -5.453125 C 3.460938 -5.453125 3.75 -5.359375 3.96875 -5.171875 C 4.1875 -4.992188 4.347656 -4.78125 4.453125 -4.53125 L 4.515625 -4.53125 L 4.828125 -5.359375 L 5.5 -5.359375 L 4.359375 0 L 3.65625 0 L 3.796875 -0.984375 L 3.75 -0.984375 C 3.519531 -0.691406 3.25 -0.4375 2.9375 -0.21875 C 2.632812 -0.0078125 2.300781 0.09375 1.9375 0.09375 Z M 2.21875 -0.625 C 2.46875 -0.625 2.707031 -0.710938 2.9375 -0.890625 C 3.175781 -1.078125 3.390625 -1.320312 3.578125 -1.625 C 3.773438 -1.9375 3.925781 -2.28125 4.03125 -2.65625 C 4.082031 -2.851562 4.113281 -3.03125 4.125 -3.1875 C 4.144531 -3.351562 4.15625 -3.507812 4.15625 -3.65625 C 4.15625 -3.96875 4.066406 -4.222656 3.890625 -4.421875 C 3.722656 -4.617188 3.492188 -4.71875 3.203125 -4.71875 C 2.941406 -4.71875 2.703125 -4.632812 2.484375 -4.46875 C 2.265625 -4.3125 2.070312 -4.085938 1.90625 -3.796875 C 1.738281 -3.515625 1.609375 -3.191406 1.515625 -2.828125 C 1.421875 -2.472656 1.375 -2.097656 1.375 -1.703125 C 1.375 -1.347656 1.445312 -1.078125 1.59375 -0.890625 C 1.738281 -0.710938 1.945312 -0.625 2.21875 -0.625 Z M 2.21875 -0.625 "/>
  <path id="glyph0-2" d="M 0.265625 0 L 1.890625 -7.59375 L 2.765625 -7.59375 L 1.15625 0 Z M 0.265625 0 "/>
  <path id="glyph0-1" d="M 0.40625 0 L 1.921875 -7.140625 L 3.765625 -7.140625 C 4.429688 -7.140625 4.953125 -7.007812 5.328125 -6.75 C 5.703125 -6.488281 5.890625 -6.070312 5.890625 -5.5 C 5.890625 -5.007812 5.742188 -4.613281 5.453125 -4.3125 C 5.160156 -4.007812 4.769531 -3.8125 4.28125 -3.71875 L 4.28125 -3.671875 C 4.601562 -3.585938 4.875 -3.421875 5.09375 -3.171875 C 5.320312 -2.929688 5.4375 -2.613281 5.4375 -2.21875 C 5.4375 -1.726562 5.316406 -1.316406 5.078125 -0.984375 C 4.835938 -0.660156 4.507812 -0.414062 4.09375 -0.25 C 3.6875 -0.0820312 3.21875 0 2.6875 0 Z M 2.171875 -4.09375 L 3.34375 -4.09375 C 3.644531 -4.09375 3.914062 -4.140625 4.15625 -4.234375 C 4.394531 -4.328125 4.585938 -4.46875 4.734375 -4.65625 C 4.878906 -4.851562 4.953125 -5.097656 4.953125 -5.390625 C 4.953125 -5.703125 4.851562 -5.941406 4.65625 -6.109375 C 4.457031 -6.285156 4.125 -6.375 3.65625 -6.375 L 2.65625 -6.375 Z M 1.453125 -0.765625 L 2.71875 -0.765625 C 3.28125 -0.765625 3.710938 -0.890625 4.015625 -1.140625 C 4.328125 -1.390625 4.484375 -1.75 4.484375 -2.21875 C 4.484375 -2.539062 4.378906 -2.8125 4.171875 -3.03125 C 3.972656 -3.25 3.625 -3.359375 3.125 -3.359375 L 2.015625 -3.359375 Z M 1.453125 -0.765625 "/>
  <path id="glyph0-0" d="M 0.9375 0 L 0.9375 -7.140625 L 5.046875 -7.140625 L 5.046875 0 Z M 1.453125 -0.515625 L 4.546875 -0.515625 L 4.546875 -6.625 L 1.453125 -6.625 Z M 1.453125 -0.515625 "/>
 </defs>
 <image width="497" xlink:href="svg/9/94_22.jpg" height="279"/>
 <g>
  <path d="M 44.929688 156.214844 L 46.445312 149.074219 L 48.289062 149.074219 C 48.953125 149.074219 49.476562 149.207031 49.851562 149.464844 C 50.226562 149.726562 50.414062 150.144531 50.414062 150.714844 C 50.414062 151.207031 50.265625 151.601562 49.976562 151.902344 C 49.683594 152.207031 49.292969 152.402344 48.804688 152.496094 L 48.804688 152.542969 C 49.125 152.628906 49.398438 152.792969 49.617188 153.042969 C 49.84375 153.285156 49.960938 153.601562 49.960938 153.996094 C 49.960938 154.488281 49.839844 154.898438 49.601562 155.230469 C 49.359375 155.554688 49.03125 155.800781 48.617188 155.964844 C 48.210938 156.132812 47.742188 156.214844 47.210938 156.214844 Z M 46.695312 152.121094 L 47.867188 152.121094 C 48.167969 152.121094 48.4375 152.074219 48.679688 151.980469 C 48.917969 151.886719 49.109375 151.746094 49.257812 151.558594 C 49.402344 151.363281 49.476562 151.117188 49.476562 150.824219 C 49.476562 150.511719 49.375 150.273438 49.179688 150.105469 C 48.980469 149.929688 48.648438 149.839844 48.179688 149.839844 L 47.179688 149.839844 Z M 45.976562 155.449219 L 47.242188 155.449219 C 47.804688 155.449219 48.234375 155.324219 48.539062 155.074219 C 48.851562 154.824219 49.007812 154.464844 49.007812 153.996094 C 49.007812 153.675781 48.902344 153.402344 48.695312 153.183594 C 48.496094 152.964844 48.148438 152.855469 47.648438 152.855469 L 46.539062 152.855469 Z M 45.976562 155.449219 " transform=" rotate(  340 56.6039 159.183) " style="fill:none;stroke-width:2;stroke-linecap:butt;stroke-linejoin:round;stroke:rgb(100%,100%,100%);stroke-opacity:0.6;stroke-miterlimit:10;"/>
  <path d="M 50.789062 156.214844 L 52.414062 148.621094 L 53.289062 148.621094 L 51.679688 156.214844 Z M 50.789062 156.214844 " transform=" rotate(  340 56.6039 159.183) " style="fill:none;stroke-width:2;stroke-linecap:butt;stroke-linejoin:round;stroke:rgb(100%,100%,100%);stroke-opacity:0.6;stroke-miterlimit:10;"/>
  <path d="M 55.042969 156.308594 C 54.613281 156.308594 54.265625 156.160156 53.996094 155.855469 C 53.722656 155.542969 53.589844 155.085938 53.589844 154.480469 C 53.589844 153.980469 53.652344 153.507812 53.777344 153.058594 C 53.910156 152.613281 54.09375 152.214844 54.324219 151.871094 C 54.550781 151.527344 54.828125 151.257812 55.152344 151.058594 C 55.472656 150.863281 55.828125 150.761719 56.214844 150.761719 C 56.566406 150.761719 56.855469 150.855469 57.074219 151.042969 C 57.292969 151.222656 57.453125 151.433594 57.558594 151.683594 L 57.621094 151.683594 L 57.933594 150.855469 L 58.605469 150.855469 L 57.464844 156.214844 L 56.761719 156.214844 L 56.902344 155.230469 L 56.855469 155.230469 C 56.625 155.523438 56.355469 155.777344 56.042969 155.996094 C 55.738281 156.207031 55.40625 156.308594 55.042969 156.308594 Z M 55.324219 155.589844 C 55.574219 155.589844 55.8125 155.503906 56.042969 155.324219 C 56.28125 155.136719 56.496094 154.894531 56.683594 154.589844 C 56.878906 154.277344 57.03125 153.933594 57.136719 153.558594 C 57.1875 153.363281 57.21875 153.183594 57.230469 153.027344 C 57.25 152.863281 57.261719 152.707031 57.261719 152.558594 C 57.261719 152.246094 57.171875 151.992188 56.996094 151.792969 C 56.828125 151.597656 56.597656 151.496094 56.308594 151.496094 C 56.046875 151.496094 55.808594 151.582031 55.589844 151.746094 C 55.371094 151.902344 55.175781 152.128906 55.011719 152.417969 C 54.84375 152.699219 54.714844 153.023438 54.621094 153.386719 C 54.527344 153.742188 54.480469 154.117188 54.480469 154.511719 C 54.480469 154.867188 54.550781 155.136719 54.699219 155.324219 C 54.84375 155.503906 55.050781 155.589844 55.324219 155.589844 Z M 55.324219 155.589844 " transform=" rotate(  340 56.6039 159.183) " style="fill:none;stroke-width:2;stroke-linecap:butt;stroke-linejoin:round;stroke:rgb(100%,100%,100%);stroke-opacity:0.6;stroke-miterlimit:10;"/>
  <path d="M 61.253906 156.308594 C 60.660156 156.308594 60.179688 156.144531 59.816406 155.808594 C 59.449219 155.476562 59.269531 154.976562 59.269531 154.308594 C 59.269531 153.832031 59.332031 153.378906 59.457031 152.949219 C 59.589844 152.523438 59.777344 152.148438 60.019531 151.824219 C 60.257812 151.492188 60.550781 151.230469 60.894531 151.042969 C 61.246094 150.855469 61.636719 150.761719 62.066406 150.761719 C 62.292969 150.761719 62.523438 150.789062 62.753906 150.839844 C 62.992188 150.882812 63.207031 150.941406 63.394531 151.011719 L 63.144531 151.746094 C 63.007812 151.683594 62.847656 151.628906 62.660156 151.574219 C 62.480469 151.523438 62.289062 151.496094 62.082031 151.496094 C 61.695312 151.496094 61.355469 151.628906 61.066406 151.886719 C 60.785156 152.136719 60.558594 152.476562 60.394531 152.902344 C 60.238281 153.332031 60.160156 153.800781 60.160156 154.308594 C 60.160156 154.714844 60.261719 155.035156 60.472656 155.261719 C 60.691406 155.480469 60.980469 155.589844 61.347656 155.589844 C 61.574219 155.589844 61.792969 155.558594 62.003906 155.496094 C 62.222656 155.425781 62.429688 155.347656 62.628906 155.261719 L 62.628906 155.996094 C 62.441406 156.089844 62.230469 156.164062 62.003906 156.214844 C 61.773438 156.277344 61.523438 156.308594 61.253906 156.308594 Z M 61.253906 156.308594 " transform=" rotate(  340 56.6039 159.183) " style="fill:none;stroke-width:2;stroke-linecap:butt;stroke-linejoin:round;stroke:rgb(100%,100%,100%);stroke-opacity:0.6;stroke-miterlimit:10;"/>
  <path d="M 63.578125 156.214844 L 65.1875 148.621094 L 66.078125 148.621094 L 65.4375 151.636719 C 65.320312 152.167969 65.222656 152.582031 65.140625 152.871094 C 65.054688 153.164062 65 153.355469 64.96875 153.449219 L 64.984375 153.449219 L 67.515625 150.855469 L 68.5625 150.855469 L 66.265625 153.152344 L 67.6875 156.214844 L 66.71875 156.214844 L 65.59375 153.699219 L 64.875 154.277344 L 64.46875 156.214844 Z M 63.578125 156.214844 " transform=" rotate(  340 56.6039 159.183) " style="fill:none;stroke-width:2;stroke-linecap:butt;stroke-linejoin:round;stroke:rgb(100%,100%,100%);stroke-opacity:0.6;stroke-miterlimit:10;"/>
  <path d="M 46.699219 168.152344 L 48.214844 161.011719 L 49.105469 161.011719 L 47.746094 167.355469 L 50.496094 167.355469 L 50.324219 168.152344 Z M 46.699219 168.152344 " transform=" rotate(  340 56.6039 159.183) " style="fill:none;stroke-width:2;stroke-linecap:butt;stroke-linejoin:round;stroke:rgb(100%,100%,100%);stroke-opacity:0.6;stroke-miterlimit:10;"/>
  <path d="M 53.011719 168.246094 C 52.582031 168.246094 52.234375 168.097656 51.964844 167.792969 C 51.691406 167.480469 51.558594 167.023438 51.558594 166.417969 C 51.558594 165.917969 51.621094 165.445312 51.746094 164.996094 C 51.878906 164.550781 52.0625 164.152344 52.292969 163.808594 C 52.519531 163.464844 52.796875 163.195312 53.121094 162.996094 C 53.441406 162.800781 53.796875 162.699219 54.183594 162.699219 C 54.535156 162.699219 54.824219 162.792969 55.042969 162.980469 C 55.261719 163.160156 55.421875 163.371094 55.527344 163.621094 L 55.589844 163.621094 L 55.902344 162.792969 L 56.574219 162.792969 L 55.433594 168.152344 L 54.730469 168.152344 L 54.871094 167.167969 L 54.824219 167.167969 C 54.59375 167.460938 54.324219 167.714844 54.011719 167.933594 C 53.707031 168.144531 53.375 168.246094 53.011719 168.246094 Z M 53.292969 167.527344 C 53.542969 167.527344 53.78125 167.441406 54.011719 167.261719 C 54.25 167.074219 54.464844 166.832031 54.652344 166.527344 C 54.847656 166.214844 55 165.871094 55.105469 165.496094 C 55.15625 165.300781 55.1875 165.121094 55.199219 164.964844 C 55.21875 164.800781 55.230469 164.644531 55.230469 164.496094 C 55.230469 164.183594 55.140625 163.929688 54.964844 163.730469 C 54.796875 163.535156 54.566406 163.433594 54.277344 163.433594 C 54.015625 163.433594 53.777344 163.519531 53.558594 163.683594 C 53.339844 163.839844 53.144531 164.066406 52.980469 164.355469 C 52.8125 164.636719 52.683594 164.960938 52.589844 165.324219 C 52.496094 165.679688 52.449219 166.054688 52.449219 166.449219 C 52.449219 166.804688 52.519531 167.074219 52.667969 167.261719 C 52.8125 167.441406 53.019531 167.527344 53.292969 167.527344 Z M 53.292969 167.527344 " transform=" rotate(  340 56.6039 159.183) " style="fill:none;stroke-width:2;stroke-linecap:butt;stroke-linejoin:round;stroke:rgb(100%,100%,100%);stroke-opacity:0.6;stroke-miterlimit:10;"/>
  <path d="M 57.019531 168.152344 L 58.628906 160.558594 L 59.519531 160.558594 L 58.878906 163.574219 C 58.761719 164.105469 58.664062 164.519531 58.582031 164.808594 C 58.496094 165.101562 58.441406 165.292969 58.410156 165.386719 L 58.425781 165.386719 L 60.957031 162.792969 L 62.003906 162.792969 L 59.707031 165.089844 L 61.128906 168.152344 L 60.160156 168.152344 L 59.035156 165.636719 L 58.316406 166.214844 L 57.910156 168.152344 Z M 57.019531 168.152344 " transform=" rotate(  340 56.6039 159.183) " style="fill:none;stroke-width:2;stroke-linecap:butt;stroke-linejoin:round;stroke:rgb(100%,100%,100%);stroke-opacity:0.6;stroke-miterlimit:10;"/>
  <path d="M 63.925781 168.246094 C 63.300781 168.246094 62.820312 168.070312 62.488281 167.714844 C 62.152344 167.351562 61.988281 166.855469 61.988281 166.230469 C 61.988281 165.804688 62.042969 165.382812 62.160156 164.964844 C 62.285156 164.550781 62.460938 164.167969 62.691406 163.824219 C 62.929688 163.480469 63.214844 163.210938 63.550781 163.011719 C 63.882812 162.804688 64.253906 162.699219 64.660156 162.699219 C 65.167969 162.699219 65.550781 162.808594 65.800781 163.027344 C 66.058594 163.246094 66.191406 163.554688 66.191406 163.949219 C 66.191406 164.292969 66.082031 164.613281 65.863281 164.902344 C 65.652344 165.183594 65.316406 165.414062 64.847656 165.589844 C 64.386719 165.757812 63.792969 165.839844 63.066406 165.839844 L 62.894531 165.839844 C 62.882812 165.894531 62.878906 165.957031 62.878906 166.027344 C 62.878906 166.089844 62.878906 166.148438 62.878906 166.199219 C 62.878906 166.605469 62.976562 166.929688 63.175781 167.167969 C 63.371094 167.410156 63.675781 167.527344 64.082031 167.527344 C 64.332031 167.527344 64.570312 167.492188 64.800781 167.417969 C 65.027344 167.347656 65.277344 167.242188 65.550781 167.105469 L 65.550781 167.855469 C 65.289062 167.972656 65.039062 168.066406 64.800781 168.136719 C 64.558594 168.207031 64.269531 168.246094 63.925781 168.246094 Z M 63.019531 165.121094 L 63.097656 165.121094 C 63.492188 165.121094 63.855469 165.089844 64.191406 165.027344 C 64.535156 164.957031 64.808594 164.835938 65.019531 164.667969 C 65.226562 164.503906 65.332031 164.285156 65.332031 164.011719 C 65.332031 163.835938 65.273438 163.695312 65.160156 163.589844 C 65.042969 163.476562 64.863281 163.417969 64.613281 163.417969 C 64.289062 163.417969 63.976562 163.570312 63.675781 163.871094 C 63.382812 164.164062 63.164062 164.582031 63.019531 165.121094 Z M 63.019531 165.121094 " transform=" rotate(  340 56.6039 159.183) " style="fill:none;stroke-width:2;stroke-linecap:butt;stroke-linejoin:round;stroke:rgb(100%,100%,100%);stroke-opacity:0.6;stroke-miterlimit:10;"/>
  <g transform=" rotate(  340 56.6039 159.183) " style="fill:rgb(30.196078%,50.196078%,70.196078%);fill-opacity:1;">
   <use xlink:href="#glyph0-1" y="156.213367" x="44.52392"/>
   <use xlink:href="#glyph0-2" y="156.213367" x="50.52392"/>
   <use xlink:href="#glyph0-3" y="156.213367" x="53.10392"/>
   <use xlink:href="#glyph0-4" y="156.213367" x="58.78392"/>
   <use xlink:href="#glyph0-5" y="156.213367" x="63.31392"/>
   <use xlink:href="#glyph0-6" y="168.153367" x="46.29392"/>
   <use xlink:href="#glyph0-3" y="168.153367" x="51.07392"/>
   <use xlink:href="#glyph0-5" y="168.153367" x="56.75392"/>
   <use xlink:href="#glyph0-7" y="168.153367" x="61.50392"/>
  </g>
 </g>
</svg>

<svg xmlns="http://www.w3.org/2000/svg" xmlns:xlink="http://www.w3.org/1999/xlink" viewBox="0 0 497 279"> <defs overflow="visible" style="stroke:none">  <path id="g" d="M2.4 0c-.6 0-1 0-1.4-.3C.6-.8.5-1.3.5-2c0-.3 0-.8.2-1.2 0-.4.3-.8.5-1.1.2-.4.5-.7.8-.8a2 2 0 0 1 1.2-.4c.5 0 .8.2 1.1.5.3 0 .4.4.4.8 0 .3-.1.7-.3 1-.4.2-.6.4-1 .6-.6.2-1.2.3-1.9.3h-.1v.3c0 .5 0 .8.3 1 .2.3.5.4.9.4l.7-.1A5 5 0 0 0 4-1v.7a6 6 0 0 1-.7.3h-.9Zm-.9-3 1.3-.1.7-.4c.2-.1.3-.4.3-.5l-.1-.6-.7-.1c-.2 0-.5.1-.9.4L1.6-3Zm0 0"/>  <path id="f" d="M.4 0 2-7.1h1L1.4-.8h2.8L4 0Zm0 0"/>  <path id="e" d="m.3 0 1.6-7.6h.9l-.8 3c.1.6 0 1-.2 1.3l-.1.5 2.5-2.6h1L3-3l1.4 3h-1L2.3-2.5l-.7.5-.4 2Zm0 0"/>  <path id="d" d="M2.5 0C1.9 0 1.4 0 1-.3.7-.7.5-1.2.5-2c0-.4 0-1 .2-1.3l.5-1c.3-.5.6-.7 1-1 .2-.1.6-.2.9-.2l.9.1.6.2-.2.7-.5-.1-.6-.1c-.4 0-.7.1-1 .4-.3.2-.5.6-.7 1A4 4 0 0 0 1.4-2c0 .5 0 .8.3 1 .2.2.5.3.9.3h.6a7 7 0 0 0 .6-.3v.8l-.6.2h-.7Zm0 0"/>  <path id="c" d="M2 0c-.6 0-.9 0-1.2-.3C.6-.7.5-1 .5-1.7c0-.5 0-1 .2-1.5l.5-1.1c.2-.4.5-.7.8-.9a2 2 0 0 1 1.1-.3c.4 0 .6.1.9.3l.5.7.3-.9h.7L4.4 0h-.7l.1-1c-.3.3-.5.6-.9.8-.3.2-.6.2-.9.2Zm.1-.5c.4-.1.6-.2.9-.5l.6-.6a4 4 0 0 0 .4-1 3 3 0 0 0 .1-.7 4 4 0 0 0 0-.4c.1-.3.1-.5-.1-.7-.3-.2-.5-.3-.8-.3-.3 0-.5 0-.7.2a2 2 0 0 0-.6.7l-.4 1-.1 1.1c0 .4 0 .6.2.8.1.2.3.3.6.3Zm.1-.1"/>  <path id="b" d="m.3 0 1.6-7.6h.9L1.2 0Zm0 0"/>  <path id="a" d="M.4 0 2-7.1h1.8c.6 0 1.2 0 1.5.3.4.3.7.8.7 1.3-.1.5-.3.9-.5 1.2-.3.3-.7.5-1.2.6l.7.5c.3.3.4.6.4 1 0 .5 0 .9-.3 1.2L4-.2 2.7 0Zm1.8-4h1.1l.9-.3.5-.4c.3-.2.3-.3.3-.7 0-.3-.1-.5-.3-.6-.2-.3-.7-.4-1-.4h-1ZM1.5-.9h1.2c.6.1 1 .1 1.3-.1.3-.4.5-.7.5-1.2 0-.3-.1-.6-.3-.8-.2-.3-.6-.4-1-.4H2Zm0 .1"/>  <path d="M1 0v-7.1h4V0Zm.4-.5h3.1v-6.1h-3Zm.1 0"/> </defs> <image xlink:href="svg/9/94_22.jpg" width="497" height="279"/> <path d="m45 156.2 1.3-7.1h2c.7-.1 1.2.1 1.6.4.3.2.5.5.5 1.2 0 .5-.1.9-.4 1.3-.3.2-.7.4-1.2.5l.8.5c.2.3.4.6.4 1 0 .5-.2.9-.4 1.2-.2.4-.6.6-1 .8l-1.4.2Zm1.6-4h1.3l.8-.2.6-.4.2-.8c0-.3-.1-.5-.3-.7-.2-.1-.6-.3-1-.3h-1Zm-.6 3.1h1.2c.6.1 1 .1 1.3-.2.5-.3.5-.6.5-1.1 0-.3 0-.6-.3-.8-.2-.2-.6-.3-1-.3h-1.3Zm4.8.9 1.6-7.6h.9l-1.6 7.6Zm4.2.1c-.4 0-.7-.1-1-.3-.3-.5-.4-1-.4-1.5s0-1 .2-1.5l.5-1.1c.3-.4.5-.6.9-.9a2 2 0 0 1 1-.2c.4 0 .8 0 .9.2l.5.7.4-.8h.6l-1.1 5.3h-.7l.1-1c-.3.3-.5.6-.9.8-.3.2-.6.3-1 .3Zm.3-.7c.3 0 .5-.1.7-.3l.7-.7a4 4 0 0 0 .3-1 3 3 0 0 0 .2-.6 4 4 0 0 0 0-.4c.1-.4.1-.6-.2-.8-.2-.2-.4-.3-.7-.3-.3 0-.5 0-.7.2a2 2 0 0 0-.6.7l-.4 1-.1 1.1c0 .5 0 .6.2.8.1.2.4.3.6.3Zm6 .7c-.6 0-1.1-.2-1.5-.5-.4-.3-.5-.8-.5-1.5 0-.5 0-1 .2-1.3 0-.5.3-.9.5-1l1-1 1-.2h.8l.6.2-.4.7-.3-.1-.7-.1c-.3 0-.6.1-1 .4-.2.1-.4.6-.6 1a4 4 0 0 0-.2 1.4c0 .4 0 .7.3 1 .2.2.5.3.8.3l.7-.1a7 7 0 0 0 .6-.2v.7l-.6.2-.7.1Zm2.3-.1 1.6-7.6h.8l-.6 3c0 .6-.2 1-.3 1.4l-.1.4 2.5-2.4h1l-2.1 2.2 1.3 3h-1l-1.1-2.5-.7.6-.4 2Zm-16.9 12 1.5-7.2h1l-1.6 6.4h2.9l-.2.8Zm6.3 0c-.4 0-.8-.1-1-.4-.3-.3-.4-.8-.4-1.4l.1-1.4.6-1.2.7-.8a2 2 0 0 1 1.1-.3c.5 0 .8 0 1.1.3l.2.6.6-.8h.6l-1.2 5.4h-.7l.3-1-1 .7c-.3.2-.6.3-1 .3Zm.3-.7c.2 0 .5 0 .7-.2l.7-.8a4 4 0 0 0 .3-1 3 3 0 0 0 .2-.5 4 4 0 0 0 0-.5c0-.3 0-.6-.2-.8-.2-.2-.4-.3-.7-.3-.3 0-.5.1-.7.3a2 2 0 0 0-.6.7c-.2.2-.3.6-.4 1l-.2.9c0 .5.1.8.3 1l.6.2Zm3.7.7 1.6-7.6h1l-.8 3-.2 1.2-.2.6 2.6-2.6h1l-2.3 2.2 1.4 3h-1l-.9-2.3-1 .5-.2 2Zm7 0c-.8 0-1.3-.1-1.6-.5-.2-.3-.4-.7-.4-1.5 0-.4 0-.8.2-1.2 0-.4.3-.8.5-1.2.2-.3.5-.6.9-.8a2 2 0 0 1 1-.3c.7 0 1.1.1 1.3.3.2.2.3.6.3 1l-.3.8c-.2.4-.6.6-1 .8-.6.2-1.2.2-1.9.2h-.1v.4c0 .4 0 .7.3 1 .2.2.5.3.8.3h.8a5 5 0 0 0 .8-.5v1a6 6 0 0 1-.8 0l-.9.2Zm-1-3h.1l1-.2c.5 0 .8-.2 1.1-.3v-1.1l-.6-.2c-.3 0-.6.2-1 .6l-.6 1Zm0-.1" style="fill:none;stroke-width:2;stroke-linecap:butt;stroke-linejoin:round;stroke:#fff;stroke-opacity:.6;stroke-miterlimit:10" transform=" rotate(  340 56.6039 159.183) "/> <g style="fill:#4d80b3;fill-opacity:1" transform=" rotate(  340 56.6039 159.183) ">  <use xlink:href="#a" x="44.5" y="156.2"/>  <use xlink:href="#b" x="50.5" y="156.2"/>  <use xlink:href="#c" x="53.1" y="156.2"/>  <use xlink:href="#d" x="58.8" y="156.2"/>  <use xlink:href="#e" x="63.3" y="156.2"/>  <use xlink:href="#f" x="46.3" y="168.2"/>  <use xlink:href="#c" x="51.1" y="168.2"/>  <use xlink:href="#e" x="56.8" y="168.2"/>  <use xlink:href="#g" x="61.5" y="168.2"/> </g></svg>
